X: 362
T: A Sore Point
R: jig
M: 6/8
K: Gmajor
d|:dBG ~G3|Gce gec|dBG ~G3|GBd dBd|
cAc BGB|AFA GEG|FAG EGF|DFA ~c3|
dBG ~G3|Gce gec|dBG ~G3|GBd dBG|
FAd AFD|^CEA GE^C|DFA dAF|D3 DcB:|
|:cBA ~A2G|FED D2C|B,G,D B,G,B,|DB,D GDG|
BGB dBd|gdB dBG|DGB dBG|~A3 Add|
dBG ~G3|Ggg ~g3|gfe ~e3|edc d2c|
Bc^c dBG|cAF DFA|GDB GDB,|G,3 G,cB:|

